brandFactory_export/1.Light/Lanzar_1Light.svg

<?xml version="1.0" encoding="UTF-8"?>
<svg width="24px" height="24px" viewBox="0 0 24 24" version="1.1" xmlns="http://www.w3.org/2000/svg" xmlns:xlink="http://www.w3.org/1999/xlink">
    <title>1.Light/Lanzar_1Light</title>
    <g id="Symbols" stroke="none" stroke-width="1" fill="none" fill-rule="evenodd">
        <g id="1.Light/Lanzar_1Light" fill="#5CB615" fill-rule="nonzero">
            <path d="M11.005042,18.1748664 C10.7361345,18.1748664 10.4806723,18.0705882 10.292437,17.8823529 L5.73109244,13.3210084 C5.33781513,12.9277311 5.33781513,12.2890756 5.73109244,11.8957983 L14.9142857,2.7092437 L13.3613445,1.15966387 C13.0991597,0.897478992 13.0991597,0.470588235 13.3613445,0.208403361 C13.4890756,0.0806722689 13.6571429,0.0100840336 13.8352941,0.0100840336 L22.9378151,0.0100840336 C23.307563,0.0100840336 23.610084,0.312605042 23.610084,0.682352941 L23.610084,9.78487395 C23.610084,10.1546218 23.307563,10.4571429 22.9378151,10.4571429 C22.7596639,10.4571429 22.5882353,10.3865546 22.4638655,10.2588235 L20.897479,8.69243697 L11.7176471,17.8823529 C11.5294118,18.0705882 11.2705882,18.1781513 11.005042,18.1748664 Z M13.8386555,0.685714286 L15.3882353,2.23529412 C15.6504202,2.49747899 15.6504202,2.92436975 15.3882353,3.18655462 L6.20504202,12.3697479 C6.07394958,12.5008403 6.07394958,12.712605 6.20504202,12.8436975 L10.7663866,17.405042 C10.897479,17.5361345 11.1092437,17.5361345 11.2403361,17.405042 L20.4235294,8.22184874 C20.5478992,8.09411765 20.7193277,8.02352941 20.897479,8.02352941 C21.0756303,8.02352941 21.2470588,8.09411765 21.3714286,8.22184874 L22.9344538,9.78487395 L22.9344538,0.685714286 L13.8386555,0.685714286 Z M0.336134454,23.610084 C0.151260504,23.610084 0,23.4588235 0,23.2739496 C0,23.1831933 0.0369747899,23.0991597 0.0974789916,23.0352941 L5.99663866,17.1361345 C6.13109244,17.0084034 6.34285714,17.0117647 6.47058824,17.1428571 C6.59495798,17.2739496 6.59495798,17.4789916 6.47058824,17.610084 L0.574789916,23.512605 C0.51092437,23.5731092 0.426890756,23.610084 0.336134454,23.610084 Z M6.37983193,23.6134454 C6.19495798,23.6134454 6.04369748,23.4621849 6.04369748,23.2773109 C6.04369748,23.1865546 6.08067227,23.102521 6.14117647,23.0386555 C7.39495798,21.7848739 9.21008403,19.902521 9.2302521,19.8823529 C9.35462185,19.7445378 9.56638655,19.7310924 9.70420168,19.8554622 C9.84201681,19.9798319 9.85546218,20.1915966 9.73109244,20.3294118 C9.72436975,20.3361345 9.7210084,20.3428571 9.71428571,20.3462185 C9.69747899,20.3663866 7.87563025,22.2521008 6.61848739,23.512605 C6.55462185,23.5764706 6.46722689,23.6134454 6.37983193,23.6134454 L6.37983193,23.6134454 Z M0.396638655,17.6302521 C0.211764706,17.6302521 0.0605042017,17.4789916 0.0605042017,17.2941176 C0.0605042017,17.2033613 0.0974789916,17.1193277 0.157983193,17.0554622 C1.41176471,15.8016807 3.22689076,13.9159664 3.24705882,13.8991597 C3.38487395,13.7747899 3.59663866,13.7815126 3.7210084,13.9193277 C3.83529412,14.0436975 3.83865546,14.2352941 3.72773109,14.3663866 C3.71092437,14.3865546 1.88907563,16.2722689 0.631932773,17.5327731 C0.571428571,17.5932773 0.487394958,17.6302521 0.396638655,17.6302521 Z" id="Lanzar_1Light"></path>
        </g>
    </g>
</svg>

<svg width="24" height="24" viewBox="0 0 24 24" xmlns="http://www.w3.org/2000/svg"><path d="M11.005 18.175c-.269 0-.524-.104-.713-.293l-4.56-4.561a1.008 1.008 0 010-1.425l9.182-9.187-1.553-1.55A.674.674 0 0113.835.01h9.103c.37 0 .672.303.672.672v9.103c0 .37-.302.672-.672.672a.66.66 0 01-.474-.198l-1.567-1.567-9.18 9.19a.996.996 0 01-.712.293zM13.839.685l1.55 1.55a.674.674 0 010 .952L6.204 12.37a.335.335 0 000 .474l4.561 4.561a.335.335 0 00.474 0l9.184-9.183a.66.66 0 01.473-.198c.179 0 .35.07.474.198l1.563 1.563v-9.1H13.84zM.336 23.61a.337.337 0 01-.239-.575l5.9-5.899a.338.338 0 01.474.007.34.34 0 010 .467L.575 23.513a.347.347 0 01-.239.097zm6.044.003a.337.337 0 01-.239-.574c1.254-1.254 3.07-3.136 3.09-3.157a.335.335 0 11.5.447c-.007.007-.01.014-.017.017-.017.02-1.838 1.906-3.096 3.167a.342.342 0 01-.238.1zM.397 17.63a.337.337 0 01-.239-.575c1.254-1.253 3.069-3.139 3.09-3.156a.335.335 0 01.48.467c-.017.02-1.839 1.906-3.096 3.167a.333.333 0 01-.235.097z" fill="#5CB615" fill-rule="nonzero"/></svg>
